X: 1359
T: An Port Ard
R: jig
M: 6/8
K: Edorian
ef|:gfe fed|B^cd e2 f|gfe f2 e|dBA Bef|
gfe f2 e|dB^c d2 e|dBA FGA|BGE E2:|
F|:GFG AGA|Bee dBA|GEF G2 A|BAG A2 B|
GEF G2 A|Bee dee|dBA FGA|BGE E2:|

